X: 13982
T: Francis Beaton's
R: reel
M: 4/4
K: Dmajor
G2|FAAB AFAd|g2 fd edBd|FAAF ABdA|BdAF D/D/D DG|
FAAB AFAd|g2 fd edBd|FAAF A[Bf][df]e|faef d2||
ef|gbge fafd|e/e/e fe dBBd|gbge fafd|gece ddef|
gbge fafd|e/e/e fe dBBd|FAAF ABde|faef ddd||

